!!!OTL: Tiao shui diao
!!!ARE: Asia, China, Shanxi Ziyang
!! I, 72
!!!SCT: C1405
!!!YEM: Copyright 1995, estate of Helmut Schaffrath.
**kern
*ICvox
*Ivox
*M2/4
*k[f#]
*G:
{8dd
8b
8dd
8b
=1
8dd
8b
4a
=2
4b
8dd
16b
16dd
=3
8dd
4b
8dd
=4
2b}
=5
{8dd
8b
8dd
16b
16dd
=6
4.ee
8b
=7
8ee
8dd
16b
16dd
8a
=8
2b}
=9
{8dd
8b
4ee
=10
8.b
16a
16g
16a
8g
=11
8e
4e
8g
=12
4a
8.b
16a
=13
2a}
==
!!!AGN: Xiaodiao
!!!ONB: ESAC (Essen Associative Code) Database: HUANG
!!!AMT: simple duple
!!!AIN: vox
!!!EED: Helmut Schaffrath
!!!EEV: 1.0
*-
